assets/1. Persons/Foot/Light/Color/Foot.Color.Light.svg

<svg width="100%" height="100%" viewBox="0 0 32 32" fill="none" xmlns="http://www.w3.org/2000/svg">
<g filter="url(#filter0_ii_0_56)">
<path d="M29.7834 24.7237C29.1653 21.9927 28.3214 21.998 28.114 18.3594C27.9066 14.7208 27.4421 10.0625 22.0984 10.0625C19.6609 10.0625 16.4565 11.4755 16.2703 16.6562C16.2703 20.3584 11.5203 22.4531 9.12471 23.47C8.33174 23.8066 6.96854 24.4375 6.17651 24.4375C5.70776 24.4375 5.38839 24.1306 4.84839 24.1406C2.91089 24.1406 2.08276 25.9375 2.08276 27.2187C2.08276 28.5 2.95381 29.9237 4.95471 29.9237C6.33486 29.9237 22.8225 29.9237 25.8334 29.9237C28.8443 29.9237 30.4015 27.4548 29.7834 24.7237Z" fill="#F4C0AB"/>
<path d="M29.7834 24.7237C29.1653 21.9927 28.3214 21.998 28.114 18.3594C27.9066 14.7208 27.4421 10.0625 22.0984 10.0625C19.6609 10.0625 16.4565 11.4755 16.2703 16.6562C16.2703 20.3584 11.5203 22.4531 9.12471 23.47C8.33174 23.8066 6.96854 24.4375 6.17651 24.4375C5.70776 24.4375 5.38839 24.1306 4.84839 24.1406C2.91089 24.1406 2.08276 25.9375 2.08276 27.2187C2.08276 28.5 2.95381 29.9237 4.95471 29.9237C6.33486 29.9237 22.8225 29.9237 25.8334 29.9237C28.8443 29.9237 30.4015 27.4548 29.7834 24.7237Z" fill="url(#paint0_radial_0_56)"/>
</g>
<path d="M29.7834 24.7237C29.1653 21.9927 28.3214 21.998 28.114 18.3594C27.9066 14.7208 27.4421 10.0625 22.0984 10.0625C19.6609 10.0625 16.4565 11.4755 16.2703 16.6562C16.2703 20.3584 11.5203 22.4531 9.12471 23.47C8.33174 23.8066 6.96854 24.4375 6.17651 24.4375C5.70776 24.4375 5.38839 24.1306 4.84839 24.1406C2.91089 24.1406 2.08276 25.9375 2.08276 27.2187C2.08276 28.5 2.95381 29.9237 4.95471 29.9237C6.33486 29.9237 22.8225 29.9237 25.8334 29.9237C28.8443 29.9237 30.4015 27.4548 29.7834 24.7237Z" fill="url(#paint1_linear_0_56)"/>
<path d="M29.7834 24.7237C29.1653 21.9927 28.3214 21.998 28.114 18.3594C27.9066 14.7208 27.4421 10.0625 22.0984 10.0625C19.6609 10.0625 16.4565 11.4755 16.2703 16.6562C16.2703 20.3584 11.5203 22.4531 9.12471 23.47C8.33174 23.8066 6.96854 24.4375 6.17651 24.4375C5.70776 24.4375 5.38839 24.1306 4.84839 24.1406C2.91089 24.1406 2.08276 25.9375 2.08276 27.2187C2.08276 28.5 2.95381 29.9237 4.95471 29.9237C6.33486 29.9237 22.8225 29.9237 25.8334 29.9237C28.8443 29.9237 30.4015 27.4548 29.7834 24.7237Z" fill="url(#paint2_linear_0_56)"/>
<path d="M29.7834 24.7237C29.1653 21.9927 28.3214 21.998 28.114 18.3594C27.9066 14.7208 27.4421 10.0625 22.0984 10.0625C19.6609 10.0625 16.4565 11.4755 16.2703 16.6562C16.2703 20.3584 11.5203 22.4531 9.12471 23.47C8.33174 23.8066 6.96854 24.4375 6.17651 24.4375C5.70776 24.4375 5.38839 24.1306 4.84839 24.1406C2.91089 24.1406 2.08276 25.9375 2.08276 27.2187C2.08276 28.5 2.95381 29.9237 4.95471 29.9237C6.33486 29.9237 22.8225 29.9237 25.8334 29.9237C28.8443 29.9237 30.4015 27.4548 29.7834 24.7237Z" fill="url(#paint3_linear_0_56)"/>
<path d="M29.7834 24.7237C29.1653 21.9927 28.3214 21.998 28.114 18.3594C27.9066 14.7208 27.4421 10.0625 22.0984 10.0625C19.6609 10.0625 16.4565 11.4755 16.2703 16.6562C16.2703 20.3584 11.5203 22.4531 9.12471 23.47C8.33174 23.8066 6.96854 24.4375 6.17651 24.4375C5.70776 24.4375 5.38839 24.1306 4.84839 24.1406C2.91089 24.1406 2.08276 25.9375 2.08276 27.2187C2.08276 28.5 2.95381 29.9237 4.95471 29.9237C6.33486 29.9237 22.8225 29.9237 25.8334 29.9237C28.8443 29.9237 30.4015 27.4548 29.7834 24.7237Z" fill="url(#paint4_radial_0_56)"/>
<g filter="url(#filter1_f_0_56)">
<path d="M24.7878 11.8395C23.8416 11.8395 23.152 12.9678 23.4022 13.8804C23.7926 15.305 24.0248 16.976 24.0845 18.021C24.1864 19.8023 24.4794 20.4926 24.8053 21.2602C25.0122 21.7478 25.2324 22.2665 25.4253 23.1157C25.9217 25.3019 24.671 27.2783 22.2529 27.2783H25.9017C26.712 27.2783 29.847 27.2784 28.6032 23.5595C28.3804 23.0857 28.1298 22.6195 27.9109 22.2122C27.7045 21.8284 27.5263 21.4968 27.4259 21.2602C27.1 20.4926 27.0332 19.8023 26.9314 18.021C26.8487 16.5749 26.4359 13.9298 25.7302 12.3981C25.5636 12.0366 25.1859 11.8395 24.7878 11.8395V11.8395Z" fill="#FFE6C7"/>
</g>
<g filter="url(#filter2_f_0_56)">
<circle cx="23.426" cy="19.0855" r="3.08554" fill="url(#paint5_radial_0_56)"/>
</g>
<g filter="url(#filter3_f_0_56)">
<path d="M20.055 16.8162C19.8952 16.8162 19.7428 16.8899 19.6547 17.0233C19.2409 17.6493 19 18.3996 19 19.2061C19 21.3953 20.7747 23.17 22.9639 23.17C25.1531 23.17 26.9278 21.3953 26.9278 19.2061C26.9278 18.4979 26.742 17.833 26.4166 17.2576C26.5806 17.6345 26.6716 18.0506 26.6716 18.4879C26.6716 20.192 25.2902 21.5734 23.5861 21.5734C21.882 21.5734 20.5005 20.192 20.5005 18.4879C20.5005 18.204 20.5389 17.9292 20.6106 17.6681C20.7178 17.2783 20.4593 16.8162 20.055 16.8162V16.8162Z" fill="url(#paint6_linear_0_56)"/>
</g>
<g filter="url(#filter4_f_0_56)">
<path d="M4.55682 26.9311H18.926" stroke="url(#paint7_linear_0_56)" stroke-width="2" stroke-linecap="round"/>
</g>
<defs>
<filter id="filter0_ii_0_56" x="2.08276" y="9.06248" width="28.3345" height="21.3613" filterUnits="userSpaceOnUse" color-interpolation-filters="sRGB">
<feFlood flood-opacity="0" result="BackgroundImageFix"/>
<feBlend mode="normal" in="SourceGraphic" in2="BackgroundImageFix" result="shape"/>
<feColorMatrix in="SourceAlpha" type="matrix" values="0 0 0 0 0 0 0 0 0 0 0 0 0 0 0 0 0 0 127 0" result="hardAlpha"/>
<feOffset dy="-1"/>
<feGaussianBlur stdDeviation="1.5"/>
<feComposite in2="hardAlpha" operator="arithmetic" k2="-1" k3="1"/>
<feColorMatrix type="matrix" values="0 0 0 0 0.870588 0 0 0 0 0.647059 0 0 0 0 0.65098 0 0 0 1 0"/>
<feBlend mode="normal" in2="shape" result="effect1_innerShadow_0_56"/>
<feColorMatrix in="SourceAlpha" type="matrix" values="0 0 0 0 0 0 0 0 0 0 0 0 0 0 0 0 0 0 127 0" result="hardAlpha"/>
<feOffset dx="0.5" dy="0.5"/>
<feGaussianBlur stdDeviation="1"/>
<feComposite in2="hardAlpha" operator="arithmetic" k2="-1" k3="1"/>
<feColorMatrix type="matrix" values="0 0 0 0 0.858824 0 0 0 0 0.666667 0 0 0 0 0.560784 0 0 0 1 0"/>
<feBlend mode="normal" in2="effect1_innerShadow_0_56" result="effect2_innerShadow_0_56"/>
</filter>
<filter id="filter1_f_0_56" x="19.7529" y="9.33949" width="11.6386" height="20.4388" filterUnits="userSpaceOnUse" color-interpolation-filters="sRGB">
<feFlood flood-opacity="0" result="BackgroundImageFix"/>
<feBlend mode="normal" in="SourceGraphic" in2="BackgroundImageFix" result="shape"/>
<feGaussianBlur stdDeviation="1.25" result="effect1_foregroundBlur_0_56"/>
</filter>
<filter id="filter2_f_0_56" x="19.3405" y="15" width="8.17108" height="8.17108" filterUnits="userSpaceOnUse" color-interpolation-filters="sRGB">
<feFlood flood-opacity="0" result="BackgroundImageFix"/>
<feBlend mode="normal" in="SourceGraphic" in2="BackgroundImageFix" result="shape"/>
<feGaussianBlur stdDeviation="0.5" result="effect1_foregroundBlur_0_56"/>
</filter>
<filter id="filter3_f_0_56" x="17.75" y="15.5662" width="10.4278" height="8.85386" filterUnits="userSpaceOnUse" color-interpolation-filters="sRGB">
<feFlood flood-opacity="0" result="BackgroundImageFix"/>
<feBlend mode="normal" in="SourceGraphic" in2="BackgroundImageFix" result="shape"/>
<feGaussianBlur stdDeviation="0.625" result="effect1_foregroundBlur_0_56"/>
</filter>
<filter id="filter4_f_0_56" x="1.55682" y="23.9311" width="20.3692" height="6" filterUnits="userSpaceOnUse" color-interpolation-filters="sRGB">
<feFlood flood-opacity="0" result="BackgroundImageFix"/>
<feBlend mode="normal" in="SourceGraphic" in2="BackgroundImageFix" result="shape"/>
<feGaussianBlur stdDeviation="1" result="effect1_foregroundBlur_0_56"/>
</filter>
<radialGradient id="paint0_radial_0_56" cx="0" cy="0" r="1" gradientUnits="userSpaceOnUse" gradientTransform="translate(17.1844 14.6493) rotate(46.8877) scale(7.32019 8.38663)">
<stop stop-color="#D6A88E"/>
<stop offset="1" stop-color="#EBB6A3" stop-opacity="0"/>
</radialGradient>
<linearGradient id="paint1_linear_0_56" x1="31.44" y1="22.2384" x2="22.8548" y2="23.257" gradientUnits="userSpaceOnUse">
<stop stop-color="#FFDABE"/>
<stop offset="1" stop-color="#FFDABE" stop-opacity="0"/>
</linearGradient>
<linearGradient id="paint2_linear_0_56" x1="16" y1="31.2736" x2="16" y2="26.8864" gradientUnits="userSpaceOnUse">
<stop offset="0.12543" stop-color="#C18497"/>
<stop offset="1" stop-color="#C18497" stop-opacity="0"/>
</linearGradient>
<linearGradient id="paint3_linear_0_56" x1="16" y1="30.0234" x2="16" y2="29.5781" gradientUnits="userSpaceOnUse">
<stop stop-color="#B67F9F"/>
<stop offset="1" stop-color="#B67F9F" stop-opacity="0"/>
</linearGradient>
<radialGradient id="paint4_radial_0_56" cx="0" cy="0" r="1" gradientUnits="userSpaceOnUse" gradientTransform="translate(27.6095 28.1112) rotate(-121.741) scale(19.7821 38.1448)">
<stop offset="0.90981" stop-color="#D5A78D" stop-opacity="0"/>
<stop offset="1" stop-color="#C6A186"/>
<stop offset="1" stop-color="#D5A78D"/>
</radialGradient>
<radialGradient id="paint5_radial_0_56" cx="0" cy="0" r="1" gradientUnits="userSpaceOnUse" gradientTransform="translate(25.6119 19.0855) rotate(180) scale(3.65402 5.03515)">
<stop stop-color="#FFE8CB"/>
<stop offset="1" stop-color="#FFE8CB" stop-opacity="0"/>
</radialGradient>
<linearGradient id="paint6_linear_0_56" x1="27.694" y1="20.8186" x2="20.5216" y2="20.6265" gradientUnits="userSpaceOnUse">
<stop offset="0.288844" stop-color="#FFD2BB"/>
<stop offset="0.592287" stop-color="#ECB1A8"/>
<stop offset="1" stop-color="#E3AD9C"/>
</linearGradient>
<linearGradient id="paint7_linear_0_56" x1="4.81148" y1="27.3676" x2="15.07" y2="27.3676" gradientUnits="userSpaceOnUse">
<stop stop-color="#FAC6B2"/>
<stop offset="1" stop-color="#FAC6B2" stop-opacity="0"/>
</linearGradient>
</defs>
</svg>

<svg width="100%" height="100%" viewBox="0 0 32 32" xmlns="http://www.w3.org/2000/svg"><g filter="url(#a)"><path fill="#F4C0AB" d="M29.783 24.724c-.618-2.731-1.462-2.726-1.669-6.365-.207-3.638-.672-8.297-6.016-8.297-2.437 0-5.642 1.414-5.828 6.594 0 3.702-4.75 5.797-7.145 6.814-.793.337-2.156.968-2.948.968-.47 0-.789-.307-1.329-.297-1.937 0-2.765 1.797-2.765 3.078s.87 2.705 2.872 2.705h20.878c3.011 0 4.569-2.47 3.95-5.2"/><path fill="url(#b)" d="M29.783 24.724c-.618-2.731-1.462-2.726-1.669-6.365-.207-3.638-.672-8.297-6.016-8.297-2.437 0-5.642 1.414-5.828 6.594 0 3.702-4.75 5.797-7.145 6.814-.793.337-2.156.968-2.948.968-.47 0-.789-.307-1.329-.297-1.937 0-2.765 1.797-2.765 3.078s.87 2.705 2.872 2.705h20.878c3.011 0 4.569-2.47 3.95-5.2"/></g><path fill="url(#c)" d="M29.783 24.724c-.618-2.731-1.462-2.726-1.669-6.365-.207-3.638-.672-8.297-6.016-8.297-2.437 0-5.642 1.414-5.828 6.594 0 3.702-4.75 5.797-7.145 6.814-.793.337-2.156.968-2.948.968-.47 0-.789-.307-1.329-.297-1.937 0-2.765 1.797-2.765 3.078s.87 2.705 2.872 2.705h20.878c3.011 0 4.569-2.47 3.95-5.2"/><path fill="url(#d)" d="M29.783 24.724c-.618-2.731-1.462-2.726-1.669-6.365-.207-3.638-.672-8.297-6.016-8.297-2.437 0-5.642 1.414-5.828 6.594 0 3.702-4.75 5.797-7.145 6.814-.793.337-2.156.968-2.948.968-.47 0-.789-.307-1.329-.297-1.937 0-2.765 1.797-2.765 3.078s.87 2.705 2.872 2.705h20.878c3.011 0 4.569-2.47 3.95-5.2"/><path fill="url(#e)" d="M29.783 24.724c-.618-2.731-1.462-2.726-1.669-6.365-.207-3.638-.672-8.297-6.016-8.297-2.437 0-5.642 1.414-5.828 6.594 0 3.702-4.75 5.797-7.145 6.814-.793.337-2.156.968-2.948.968-.47 0-.789-.307-1.329-.297-1.937 0-2.765 1.797-2.765 3.078s.87 2.705 2.872 2.705h20.878c3.011 0 4.569-2.47 3.95-5.2"/><path fill="url(#f)" d="M29.783 24.724c-.618-2.731-1.462-2.726-1.669-6.365-.207-3.638-.672-8.297-6.016-8.297-2.437 0-5.642 1.414-5.828 6.594 0 3.702-4.75 5.797-7.145 6.814-.793.337-2.156.968-2.948.968-.47 0-.789-.307-1.329-.297-1.937 0-2.765 1.797-2.765 3.078s.87 2.705 2.872 2.705h20.878c3.011 0 4.569-2.47 3.95-5.2"/><g filter="url(#g)"><path fill="#FFE6C7" d="M24.788 11.84c-.946 0-1.636 1.128-1.386 2.04.39 1.425.623 3.096.682 4.141.102 1.781.395 2.472.721 3.24.207.487.427 1.006.62 1.855.497 2.186-.754 4.162-3.172 4.162h3.649c.81 0 3.945 0 2.701-3.718-.223-.474-.473-.94-.692-1.348a14 14 0 0 1-.485-.952c-.326-.767-.393-1.458-.495-3.239-.082-1.446-.495-4.091-1.2-5.623-.167-.361-.545-.559-.943-.559"/></g><g filter="url(#h)"><circle cx="23.426" cy="19.085" r="3.086" fill="url(#i)"/></g><g filter="url(#j)"><path fill="url(#k)" d="M20.055 16.816a.48.48 0 0 0-.4.207 3.964 3.964 0 1 0 6.762.234 3.085 3.085 0 1 1-5.806.41c.107-.389-.152-.85-.556-.85"/></g><g filter="url(#l)"><path stroke="url(#m)" stroke-linecap="round" stroke-width="2" d="M4.557 26.931h14.369"/></g><defs><linearGradient id="c" x1="31.44" x2="22.855" y1="22.238" y2="23.257" gradientUnits="userSpaceOnUse"><stop stop-color="#FFDABE"/><stop offset="1" stop-color="#FFDABE" stop-opacity="0"/></linearGradient><linearGradient id="d" x1="16" x2="16" y1="31.274" y2="26.886" gradientUnits="userSpaceOnUse"><stop offset=".125" stop-color="#C18497"/><stop offset="1" stop-color="#C18497" stop-opacity="0"/></linearGradient><linearGradient id="e" x1="16" x2="16" y1="30.023" y2="29.578" gradientUnits="userSpaceOnUse"><stop stop-color="#B67F9F"/><stop offset="1" stop-color="#B67F9F" stop-opacity="0"/></linearGradient><linearGradient id="k" x1="27.694" x2="20.522" y1="20.819" y2="20.627" gradientUnits="userSpaceOnUse"><stop offset=".289" stop-color="#FFD2BB"/><stop offset=".592" stop-color="#ECB1A8"/><stop offset="1" stop-color="#E3AD9C"/></linearGradient><linearGradient id="m" x1="4.811" x2="15.07" y1="27.368" y2="27.368" gradientUnits="userSpaceOnUse"><stop stop-color="#FAC6B2"/><stop offset="1" stop-color="#FAC6B2" stop-opacity="0"/></linearGradient><filter id="a" width="28.334" height="21.361" x="2.083" y="9.062" color-interpolation-filters="sRGB" filterUnits="userSpaceOnUse"><feFlood flood-opacity="0" result="BackgroundImageFix"/><feBlend in="SourceGraphic" in2="BackgroundImageFix" result="shape"/><feColorMatrix in="SourceAlpha" result="hardAlpha" values="0 0 0 0 0 0 0 0 0 0 0 0 0 0 0 0 0 0 127 0"/><feOffset dy="-1"/><feGaussianBlur stdDeviation="1.5"/><feComposite in2="hardAlpha" k2="-1" k3="1" operator="arithmetic"/><feColorMatrix values="0 0 0 0 0.870588 0 0 0 0 0.647059 0 0 0 0 0.65098 0 0 0 1 0"/><feBlend in2="shape" result="effect1_innerShadow_0_56"/><feColorMatrix in="SourceAlpha" result="hardAlpha" values="0 0 0 0 0 0 0 0 0 0 0 0 0 0 0 0 0 0 127 0"/><feOffset dx=".5" dy=".5"/><feGaussianBlur stdDeviation="1"/><feComposite in2="hardAlpha" k2="-1" k3="1" operator="arithmetic"/><feColorMatrix values="0 0 0 0 0.858824 0 0 0 0 0.666667 0 0 0 0 0.560784 0 0 0 1 0"/><feBlend in2="effect1_innerShadow_0_56" result="effect2_innerShadow_0_56"/></filter><filter id="g" width="11.639" height="20.439" x="19.753" y="9.339" color-interpolation-filters="sRGB" filterUnits="userSpaceOnUse"><feFlood flood-opacity="0" result="BackgroundImageFix"/><feBlend in="SourceGraphic" in2="BackgroundImageFix" result="shape"/><feGaussianBlur result="effect1_foregroundBlur_0_56" stdDeviation="1.25"/></filter><filter id="h" width="8.171" height="8.171" x="19.34" y="15" color-interpolation-filters="sRGB" filterUnits="userSpaceOnUse"><feFlood flood-opacity="0" result="BackgroundImageFix"/><feBlend in="SourceGraphic" in2="BackgroundImageFix" result="shape"/><feGaussianBlur result="effect1_foregroundBlur_0_56" stdDeviation=".5"/></filter><filter id="j" width="10.428" height="8.854" x="17.75" y="15.566" color-interpolation-filters="sRGB" filterUnits="userSpaceOnUse"><feFlood flood-opacity="0" result="BackgroundImageFix"/><feBlend in="SourceGraphic" in2="BackgroundImageFix" result="shape"/><feGaussianBlur result="effect1_foregroundBlur_0_56" stdDeviation=".625"/></filter><filter id="l" width="20.369" height="6" x="1.557" y="23.931" color-interpolation-filters="sRGB" filterUnits="userSpaceOnUse"><feFlood flood-opacity="0" result="BackgroundImageFix"/><feBlend in="SourceGraphic" in2="BackgroundImageFix" result="shape"/><feGaussianBlur result="effect1_foregroundBlur_0_56" stdDeviation="1"/></filter><radialGradient id="b" cx="0" cy="0" r="1" gradientTransform="rotate(46.888 -8.299 27.138)scale(7.32019 8.38663)" gradientUnits="userSpaceOnUse"><stop stop-color="#D6A88E"/><stop offset="1" stop-color="#EBB6A3" stop-opacity="0"/></radialGradient><radialGradient id="f" cx="0" cy="0" r="1" gradientTransform="rotate(-121.741 21.637 6.363)scale(19.7821 38.1448)" gradientUnits="userSpaceOnUse"><stop offset=".91" stop-color="#D5A78D" stop-opacity="0"/><stop offset="1" stop-color="#C6A186"/><stop offset="1" stop-color="#D5A78D"/></radialGradient><radialGradient id="i" cx="0" cy="0" r="1" gradientTransform="matrix(-3.65402 0 0 -5.03515 25.612 19.085)" gradientUnits="userSpaceOnUse"><stop stop-color="#FFE8CB"/><stop offset="1" stop-color="#FFE8CB" stop-opacity="0"/></radialGradient></defs></svg>
